svg/quart.svg

<svg viewBox="0 0 20 20" xmlns="http://www.w3.org/2000/svg">
<path d="M20 0H0V20H20V0Z" fill="#F0773E"/>
<path d="M8.52965 2.44C8.77965 2.37 9.01965 2.52 9.08965 2.75C9.15965 2.99 9.01965 3.25 8.76965 3.32L5.74965 4.17C5.49965 4.24 5.24965 4.09 5.17965 3.86C5.10965 3.61 5.25965 3.36 5.49965 3.29L5.14965 2.06C5.12965 1.98 5.13965 1.91 5.17965 1.84C5.20965 1.78 5.26965 1.73 5.33965 1.71L7.82965 1.01C7.89965 0.99 7.97965 1 8.03965 1.04C8.10965 1.07 8.14965 1.13 8.17965 1.2L8.51965 2.44H8.52965Z" fill="white"/>
<path fill-rule="evenodd" clip-rule="evenodd" d="M9.60956 6.64003C12.4396 6.41003 15.1396 8.19003 15.9396 11.01C16.8496 14.21 14.9796 17.54 11.7696 18.44C8.54956 19.35 5.20956 17.49 4.30956 14.28C3.55956 11.66 4.67956 8.95003 6.87956 7.57003L5.94956 4.31003L8.72956 3.53003L9.60956 6.64003ZM4.79956 14.14C5.62956 17.07 8.68956 18.77 11.6296 17.94C14.5596 17.12 16.2696 14.08 15.4396 11.14C15.0996 9.91003 14.5296 8.55003 13.3996 8.20003C11.5713 7.6298 10.9664 8.81168 10.3091 10.096C9.84823 10.9965 9.3616 11.9473 8.40956 12.38C6.08956 13.43 4.75956 11.31 4.75956 11.31C4.51956 12.24 4.53956 13.22 4.79956 14.14Z" fill="white"/>
</svg>

<svg xmlns="http://www.w3.org/2000/svg" viewBox="0 0 20 20">
  <path fill="#F0773E" d="M20 0H0v20h20V0Z"/>
  <path fill="#fff" d="M8.53 2.44a.46.46 0 1 1 .24.88l-3.02.85a.47.47 0 0 1-.57-.31.46.46 0 0 1 .32-.57l-.35-1.23a.28.28 0 0 1 .03-.22.26.26 0 0 1 .16-.13l2.49-.7a.26.26 0 0 1 .21.03c.07.03.11.09.14.16l.34 1.24h.01Z"/>
  <path fill="#fff" fill-rule="evenodd" d="M9.61 6.64a6.01 6.01 0 0 1 2.16 11.8A6.03 6.03 0 0 1 6.88 7.57l-.93-3.26 2.78-.78.88 3.11Zm-4.81 7.5a5.53 5.53 0 0 0 10.64-3c-.34-1.23-.91-2.59-2.04-2.94-1.83-.57-2.43.61-3.1 1.9-.45.9-.94 1.85-1.89 2.28-2.32 1.05-3.65-1.07-3.65-1.07-.24.93-.22 1.91.04 2.83Z" clip-rule="evenodd"/>
</svg>
